src/activities/colors/resource/checkError.svg

<?xml version="1.0" encoding="UTF-8" standalone="no"?>
<!-- Created with Inkscape (http://www.inkscape.org/) -->

<svg
   xmlns:dc="http://purl.org/dc/elements/1.1/"
   xmlns:cc="http://creativecommons.org/ns#"
   xmlns:rdf="http://www.w3.org/1999/02/22-rdf-syntax-ns#"
   xmlns:svg="http://www.w3.org/2000/svg"
   xmlns="http://www.w3.org/2000/svg"
   xmlns:sodipodi="http://sodipodi.sourceforge.net/DTD/sodipodi-0.dtd"
   xmlns:inkscape="http://www.inkscape.org/namespaces/inkscape"
   id="svg2862"
   sodipodi:docname="checkError.svg"
   viewBox="0 0 128.5 128.5"
   sodipodi:version="0.32"
   version="1.0"
   inkscape:version="0.92.4 (5da689c313, 2019-01-14)"
   width="100%"
   height="100%">
  <defs
     id="defs8" />
  <sodipodi:namedview
     id="base"
     bordercolor="#666666"
     inkscape:grid-points="true"
     inkscape:pageshadow="2"
     guidetolerance="10"
     pagecolor="#ffffff"
     gridtolerance="10000"
     inkscape:window-height="1051"
     inkscape:zoom="3.959798"
     objecttolerance="10"
     showgrid="true"
     borderopacity="1.0"
     inkscape:current-layer="layer1"
     inkscape:cx="20.814134"
     inkscape:cy="58.983323"
     inkscape:window-y="0"
     inkscape:window-x="0"
     inkscape:window-width="1884"
     inkscape:pageopacity="0.0"
     inkscape:document-units="px"
     fit-margin-top="0"
     fit-margin-left="0"
     fit-margin-right="0"
     fit-margin-bottom="0"
     borderlayer="true"
     inkscape:window-maximized="1" />
  <g
     id="layer1"
     inkscape:label="Layer 1"
     inkscape:groupmode="layer"
     transform="translate(-83.25,-505.625)">
    <path
       id="path2892"
       style="fill:#9e0e0e;fill-opacity:1;fill-rule:evenodd;stroke:none;stroke-width:1.26732671px"
       d="m 115.81683,506.50866 31.68317,31.68317 31.68317,-31.68317 31.68317,31.68317 -31.68317,31.68317 31.68317,31.68317 -31.68317,31.68317 L 147.5,601.55817 115.81683,633.24134 84.13366,601.55817 115.81683,569.875 84.13366,538.19183 Z"
       inkscape:connector-curvature="0" />
    <path
       id="path2892-3"
       style="fill:#df2020;fill-rule:evenodd;stroke:none;stroke-width:1.26732671px;fill-opacity:1"
       d="m 115.81683,510.50866 31.68317,31.68317 31.68317,-31.68317 25.68317,25.68317 -31.68317,31.68317 31.68317,31.68317 -25.68317,25.68317 L 147.5,595.55817 115.81683,625.24134 90.13366,599.55817 121.81683,567.875 90.13366,536.19183 Z"
       inkscape:connector-curvature="0"
       sodipodi:nodetypes="ccccccccccccc" />
  </g>
  <metadata
     id="metadata6">
    <rdf:RDF>
      <cc:Work>
        <dc:format>image/svg+xml</dc:format>
        <dc:type
           rdf:resource="http://purl.org/dc/dcmitype/StillImage" />
        <cc:license
           rdf:resource="http://creativecommons.org/licenses/by-sa/4.0/" />
        <dc:publisher>
          <cc:Agent
             rdf:about="http://openclipart.org/">
            <dc:title />
          </cc:Agent>
        </dc:publisher>
        <dc:title />
        <dc:date>2019</dc:date>
        <dc:description />
        <dc:source />
        <dc:creator>
          <cc:Agent>
            <dc:title>Timothée Giet</dc:title>
          </cc:Agent>
        </dc:creator>
        <dc:subject>
          <rdf:Bag />
        </dc:subject>
      </cc:Work>
      <cc:License
         rdf:about="http://creativecommons.org/licenses/by-sa/4.0/">
        <cc:permits
           rdf:resource="http://creativecommons.org/ns#Reproduction" />
        <cc:permits
           rdf:resource="http://creativecommons.org/ns#Distribution" />
        <cc:requires
           rdf:resource="http://creativecommons.org/ns#Notice" />
        <cc:requires
           rdf:resource="http://creativecommons.org/ns#Attribution" />
        <cc:permits
           rdf:resource="http://creativecommons.org/ns#DerivativeWorks" />
        <cc:requires
           rdf:resource="http://creativecommons.org/ns#ShareAlike" />
      </cc:License>
    </rdf:RDF>
  </metadata>
</svg>

<!--Created with Inkscape (http://www.inkscape.org/)--><svg xmlns:dc="http://purl.org/dc/elements/1.1/" xmlns:cc="http://creativecommons.org/ns#" xmlns:rdf="http://www.w3.org/1999/02/22-rdf-syntax-ns#" xmlns="http://www.w3.org/2000/svg" xmlns:sodipodi="http://sodipodi.sourceforge.net/DTD/sodipodi-0.dtd" xmlns:inkscape="http://www.inkscape.org/namespaces/inkscape" sodipodi:docname="checkError.svg" viewBox="0 0 128.5 128.5" sodipodi:version="0.32" version="1.0" inkscape:version="0.92.4 (5da689c313, 2019-01-14)"><sodipodi:namedview bordercolor="#666666" inkscape:grid-points="true" inkscape:pageshadow="2" guidetolerance="10" pagecolor="#ffffff" gridtolerance="10000" inkscape:window-height="1051" inkscape:zoom="3.959798" objecttolerance="10" showgrid="true" borderopacity="1.0" inkscape:current-layer="layer1" inkscape:cx="20.814134" inkscape:cy="58.983323" inkscape:window-y="0" inkscape:window-x="0" inkscape:window-width="1884" inkscape:pageopacity="0.0" inkscape:document-units="px" fit-margin-top="0" fit-margin-left="0" fit-margin-right="0" fit-margin-bottom="0" borderlayer="true" inkscape:window-maximized="1"/><g inkscape:label="Layer 1" inkscape:groupmode="layer"><path style="fill:#9e0e0e;fill-opacity:1;fill-rule:evenodd;stroke:none;stroke-width:1.26732671px" d="m115.817 506.509 31.683 31.683 31.683-31.683 31.683 31.683-31.683 31.683 31.683 31.683-31.683 31.683-31.683-31.683-31.683 31.683-31.683-31.683 31.683-31.683-31.683-31.683z" inkscape:connector-curvature="0" transform="translate(-83.25 -505.625)"/><path style="fill:#df2020;fill-rule:evenodd;stroke:none;stroke-width:1.26732671px;fill-opacity:1" d="m115.817 510.509 31.683 31.683 31.683-31.683 25.683 25.683-31.683 31.683 31.683 31.683-25.683 25.683-31.683-29.683-31.683 29.683-25.683-25.683 31.683-31.683-31.683-31.683z" inkscape:connector-curvature="0" sodipodi:nodetypes="ccccccccccccc" transform="translate(-83.25 -505.625)"/></g><metadata><rdf:RDF><cc:Work><dc:format>image/svg+xml</dc:format><dc:type rdf:resource="http://purl.org/dc/dcmitype/StillImage"/><cc:license rdf:resource="http://creativecommons.org/licenses/by-sa/4.0/"/><dc:publisher><cc:Agent rdf:about="http://openclipart.org/"><dc:title/></cc:Agent></dc:publisher><dc:title/><dc:date>2019</dc:date><dc:description/><dc:source/><dc:creator><cc:Agent><dc:title>Timothée Giet</dc:title></cc:Agent></dc:creator><dc:subject><rdf:Bag/></dc:subject></cc:Work><cc:License rdf:about="http://creativecommons.org/licenses/by-sa/4.0/"><cc:permits rdf:resource="http://creativecommons.org/ns#Reproduction"/><cc:permits rdf:resource="http://creativecommons.org/ns#Distribution"/><cc:requires rdf:resource="http://creativecommons.org/ns#Notice"/><cc:requires rdf:resource="http://creativecommons.org/ns#Attribution"/><cc:permits rdf:resource="http://creativecommons.org/ns#DerivativeWorks"/><cc:requires rdf:resource="http://creativecommons.org/ns#ShareAlike"/></cc:License></rdf:RDF></metadata></svg>
